X:1
T:MUS240 Woodwind Trio
C:Ali Corbin
M:3/2
L:1/2
Q:1/2=100
K:Dmin
%%MIDI program 1 73 % Flute
%%MIDI program 2 72 % Clarinet
%%MIDI program 3 70 % Bassoon
V:Flute name="Flute" snm="Fl"
D3|F3|z3|D3|F3|z3|D3|F3|z3|D3|F2 (a|
s:!ppp!|||||+pp+||||-+f+
s:+>+|+>+||+>+|+>+||+>+|+>+||+>+|+>+
s:+breath+||+breath+||+breath+||+breath+|
c'2 a/2g/2|a2) (g/2f/2|d2c/2A/2|c2) (c|d2 c/2d/2|f2) (g/2f/2|d2) z|
f/4f'/4d'/4d''/4 a/4a'/4a/4d'/4 a/2>z/2|d/4d'/4=b/4b'/4 f/4f'/4f/4b/4 f/2>z/2|=B/4b/4g/4g'/4 d/4d'/4d/4g/4 d/2>z/2| 
s:+f+|||
s:+<(+|||
.e/4.e'/4.=b/4.b'/4 .g/4.g'/4.g/4.b/4 .g/2>z/2|.g/4.g'/4.c'/4.c''/4 .=b/4.b'/4.b/4.d'/4 .b/2>z/2|.=b/4.g'/4.c'/4.c''/4 .b/4.b'/4.b/4.d'/4 .b/2>z/2|e'3||
s:|||+ffff+
s:|||+<)+
s:|||+fermata+
V:Clarinet name="Bb Clarinet" snm="Cl"
[K:Emin transpose=-2]
z3|z3|z3|z3|z3|z3|(EB,E|BeB|A)z(D|EDC|B,2)z|
s:+pp+
z3|E3|G3|z3|E3|G3|z2 (B|
s:+>+|+>+||+>+|+>+|
s:|+mp+|||+mf+||
s:+breath+||+breath+|
d2 B/2A/2|B2) (A/2G/2|E2 D/2B,/2|D2) (^D|E2 ^D/2E/2|G2) (A/2G/2|E3)||
s:||||||+ffff+
s:+<(+||||||+<)+
s:||||||+fermata+
V:Bassoon name="Bassoon" snm="Bas" clef=tenor
z3|z3|z3|z3|z2 (D|D2 C/2D/2|F2 G/2F/2|D2) (A|c2 A/2G/2|F2 G|A2) z|
s:+p+
[K:bass]
G,/4A,/4=B,/2C/2DE/2|E,/4F,/4G,/2A,/2=B,C/2|C,/4D,/4E,/2F,/2G,A,/2|=B,2z|D/4C/4=B,/2A,/2G,F,/2|=B,/4A,/4G,/2F,/2E,D,/2|C,2 z|
s:+p+|||+f+|||+mf+
s:+<(+|||+<)+|+>(+||+>)+
D,,3|F,,3|z3|D,,3-|D,,3|_E,,3-|_E,,3||
s:+f+|||+ff+||+f+|+ffff+
s:+>+|+>+||+>(+|+>)+|+<(+|+<)+|
s:+breath+||||+breath+||+fermata+


